img/suhy.svg

<svg width="33" height="20" viewBox="0 0 33 20" fill="none" xmlns="http://www.w3.org/2000/svg">
<path d="M19.9592 13.3818C15.7035 13.3818 11.6928 14.0078 8.36072 15.1921C7.5382 15.4844 6.68197 15.6328 5.81602 15.6327C4.74815 15.6327 3.71339 15.4049 2.76892 14.9854C3.54472 17.87 6.18714 20 9.31917 20H24.8109C27.975 20 30.6398 17.8261 31.3847 14.8964C31.0829 14.8954 30.7828 14.8536 30.4925 14.7714C27.2797 13.8624 23.6373 13.3818 19.9592 13.3818Z" fill="#FF7010"/>
<path d="M10.5413 12.2524C11.8704 11.929 13.26 11.6777 14.6871 11.5004C11.9049 8.45968 11.6457 3.3412 14.1837 0C12.1402 0.0628628 10.1451 0.396932 8.28753 0.974374C7.33578 1.88611 6.66037 3.06045 6.35967 4.35142C5.54679 7.5583 7.44337 11.1184 10.5413 12.2524Z" fill="#FF7010"/>
<path d="M7.60386 13.1221C4.82169 11.0409 3.3729 7.44349 4.20934 3.85267C4.31487 3.39963 4.45712 2.95812 4.62984 2.53027C3.8926 2.94175 3.19658 3.39948 2.55082 3.90158C-1.4576 6.99992 0.824821 13.4418 5.81605 13.4297C6.41007 13.4297 7.01367 13.3298 7.60386 13.1221Z" fill="#FF7010"/>
<path d="M26.4456 3.22607C25.4726 3.70452 24.688 4.48972 24.2114 5.47335C23.41 7.12702 23.6105 9.04955 24.6766 10.487C24.8414 10.7092 25.4471 11.3774 25.5034 11.529C27.4269 11.774 29.3099 12.147 31.095 12.6521C31.4659 12.7571 31.8652 12.6612 32.1477 12.3991C32.4303 12.137 32.5551 11.7466 32.4772 11.3696C31.8028 8.10955 29.5905 5.25898 26.4456 3.22607Z" fill="#FF7010"/>
<path d="M17.6896 11.2381C19.293 11.1552 20.9196 11.1612 22.538 11.2552C21.3139 9.24152 21.1577 6.7143 22.2239 4.51417C22.7036 3.52423 23.3985 2.67316 24.2499 2.01215C22.1113 1.00796 19.6783 0.337909 17.0857 0.0927734C13.577 2.98109 13.9069 8.76917 17.6896 11.2381Z" fill="#FF7010"/>
</svg>

<svg width="33" height="20" fill="none" xmlns="http://www.w3.org/2000/svg"><path d="M19.96 13.382c-4.257 0-8.267.626-11.6 1.81a7.578 7.578 0 0 1-2.544.44 7.5 7.5 0 0 1-3.047-.647A6.79 6.79 0 0 0 9.319 20h15.492a6.79 6.79 0 0 0 6.574-5.104 3.314 3.314 0 0 1-.893-.125c-3.212-.909-6.855-1.39-10.533-1.39ZM10.541 12.252a36.725 36.725 0 0 1 4.146-.752c-2.782-3.04-3.041-8.159-.503-11.5a22.225 22.225 0 0 0-5.896.974A6.831 6.831 0 0 0 6.36 4.351c-.813 3.207 1.083 6.767 4.181 7.901Z" fill="#FF7010"/><path d="M7.604 13.122c-2.782-2.081-4.231-5.679-3.395-9.27a8.97 8.97 0 0 1 .42-1.322 16.43 16.43 0 0 0-2.078 1.372C-1.458 7 .825 13.442 5.816 13.43c.594 0 1.198-.1 1.788-.308ZM26.446 3.226a4.86 4.86 0 0 0-2.235 2.247 4.849 4.849 0 0 0 .466 5.014c.164.222.77.89.826 1.042 1.924.245 3.807.618 5.592 1.123.37.105.77.01 1.053-.253a1.1 1.1 0 0 0 .33-1.03c-.675-3.26-2.888-6.11-6.032-8.143ZM17.69 11.238a44.341 44.341 0 0 1 4.848.017 7.04 7.04 0 0 1-.314-6.74 7.06 7.06 0 0 1 2.026-2.503C22.11 1.008 19.678.338 17.086.092c-3.509 2.89-3.18 8.677.604 11.146Z" fill="#FF7010"/></svg>
